icons/circle/48/steam_icon_474750.svg

<?xml version="1.0" encoding="UTF-8" standalone="no"?>
<svg xmlns="http://www.w3.org/2000/svg" version="1.1" viewBox="0 0 48 48">
	<defs>
		<linearGradient id="bg" gradientUnits="userSpaceOnUse" x1="0" x2="0" y1="1" y2="47">
			<stop offset="0" stop-color="#3d3d3d"/>
			<stop offset="1" stop-color="#303030"/>
		</linearGradient>
	</defs>
	<g>
		<path opacity=".05" d="m 36.31 5 c 5.859 4.062 9.688 10.831 9.688 18.5 c 0 12.426 -10.07 22.5 -22.5 22.5 c -7.669 0 -14.438 -3.828 -18.5 -9.688 c 1.037 1.822 2.306 3.499 3.781 4.969 c 4.085 3.712 9.514 5.969 15.469 5.969 c 12.703 0 23 -10.298 23 -23 c 0 -5.954 -2.256 -11.384 -5.969 -15.469 c -1.469 -1.475 -3.147 -2.744 -4.969 -3.781 z m 4.969 3.781 c 3.854 4.113 6.219 9.637 6.219 15.719 c 0 12.703 -10.297 23 -23 23 c -6.081 0 -11.606 -2.364 -15.719 -6.219 c 4.16 4.144 9.883 6.719 16.219 6.719 c 12.703 0 23 -10.298 23 -23 c 0 -6.335 -2.575 -12.06 -6.719 -16.219 z"/>
		<path opacity=".1" d="m 41.28 8.781 c 3.712 4.085 5.969 9.514 5.969 15.469 c 0 12.703 -10.297 23 -23 23 c -5.954 0 -11.384 -2.256 -15.469 -5.969 c 4.113 3.854 9.637 6.219 15.719 6.219 c 12.703 0 23 -10.298 23 -23 c 0 -6.081 -2.364 -11.606 -6.219 -15.719 z"/>
		<path opacity=".2" d="m 31.25 2.375 c 8.615 3.154 14.75 11.417 14.75 21.13 c 0 12.426 -10.07 22.5 -22.5 22.5 c -9.708 0 -17.971 -6.135 -21.12 -14.75 a 23 23 0 0 0 44.875 -7 a 23 23 0 0 0 -16 -21.875 z"/>
		<circle fill="url(#bg)" cx="24" cy="24" r="23"/>
		<path opacity=".1" d="m 40.03 7.531 c 3.712 4.084 5.969 9.514 5.969 15.469 0 12.703 -10.297 23 -23 23 c -5.954 0 -11.384 -2.256 -15.469 -5.969 4.178 4.291 10.01 6.969 16.469 6.969 c 12.703 0 23 -10.298 23 -23 0 -6.462 -2.677 -12.291 -6.969 -16.469 z"/>
	</g>
	<path opacity=".1" d="M 16 14.7320508075688772 a 2 2 0 1 1 2 0 V 17 H 23 V 13.7320508075688772 a 2 2 0 1 1 2 0 V 17 H 30 V 14.7320508075688772 a 2 2 0 1 1 2 0 V 33 l -8 5 -8 -5 z" transform="translate(1 1)"/>
	<path fill="#eee" d="M 16 21 l .5 -.5 h 8 v 17 l -.5 .5 -8 -5 z"/>
	<path fill="#aaa" d="M 32 21 l -.5 -.5 h -7.5 v 17.5 l 8 -5 z"/>
	<path fill="#111" d="M 20 25 h 1 v 4 h -1 z M 27 25 h 1 v 4 h -1 z"/>
	<path fill="#dc0" d="M 16 21 H 24 l .5 -.5 v -10 l -.5 -.5 a 2 2 0 0 0 -1 3.7320508075688772 V 17 H 18 V 14.7320508075688772 a 2 2 0 1 0 -2 0 z"/>
	<path fill="#980" d="M 32 21 H 24 V 10 a 2 2 0 0 1 1 3.7320508075688772 V 17 H 30 V 14.7320508075688772 a 2 2 0 1 1 2 0 z"/>
</svg>

<svg xmlns="http://www.w3.org/2000/svg" viewBox="0 0 48 48">
  <defs>
    <linearGradient id="a" gradientUnits="userSpaceOnUse" x2="0" y1="1" y2="47">
      <stop offset="0" stop-color="#3d3d3d"/>
      <stop offset="1" stop-color="#303030"/>
    </linearGradient>
  </defs>
  <path opacity=".05" d="M36.31 5c5.859 4.062 9.688 10.831 9.688 18.5 0 12.426-10.07 22.5-22.5 22.5-7.669 0-14.438-3.828-18.5-9.688a23.24 23.24 0 0 0 3.781 4.969 22.923 22.923 0 0 0 15.469 5.969c12.703 0 23-10.298 23-23a22.92 22.92 0 0 0-5.969-15.469A23.216 23.216 0 0 0 36.31 5zm4.969 3.781A22.911 22.911 0 0 1 47.498 24.5c0 12.703-10.297 23-23 23a22.909 22.909 0 0 1-15.719-6.219C12.939 45.425 18.662 48 24.998 48c12.703 0 23-10.298 23-23 0-6.335-2.575-12.06-6.719-16.219z"/>
  <path opacity=".1" d="M41.28 8.781a22.923 22.923 0 0 1 5.969 15.469c0 12.703-10.297 23-23 23A22.92 22.92 0 0 1 8.78 41.281 22.911 22.911 0 0 0 24.499 47.5c12.703 0 23-10.298 23-23A22.909 22.909 0 0 0 41.28 8.781z"/>
  <path opacity=".2" d="M31.25 2.375C39.865 5.529 46 13.792 46 23.505c0 12.426-10.07 22.5-22.5 22.5-9.708 0-17.971-6.135-21.12-14.75a23 23 0 0 0 44.875-7 23 23 0 0 0-16-21.875z"/>
  <circle fill="url(#a)" cx="24" cy="24" r="23"/>
  <path opacity=".1" d="M40.03 7.531A22.922 22.922 0 0 1 45.999 23c0 12.703-10.297 23-23 23A22.92 22.92 0 0 1 7.53 40.031C11.708 44.322 17.54 47 23.999 47c12.703 0 23-10.298 23-23 0-6.462-2.677-12.291-6.969-16.469z"/>
  <path opacity=".1" d="M17 15.732a2 2 0 1 1 2 0V18h5v-3.268a2 2 0 1 1 2 0V18h5v-2.268a2 2 0 1 1 2 0V34l-8 5-8-5z"/>
  <path fill="#eee" d="M16 21l.5-.5h8v17l-.5.5-8-5z"/>
  <path fill="#aaa" d="M32 21l-.5-.5H24V38l8-5z"/>
  <path fill="#111" d="M20 25h1v4h-1zm7 0h1v4h-1z"/>
  <path fill="#dc0" d="M16 21h8l.5-.5v-10L24 10a2 2 0 0 0-1 3.732V17h-5v-2.268a2 2 0 1 0-2 0z"/>
  <path fill="#980" d="M32 21h-8V10a2 2 0 0 1 1 3.732V17h5v-2.268a2 2 0 1 1 2 0z"/>
</svg>
